X:1
T:Les heritiers
C:Stephane Durand
A:France
Z:abc transcription Simon Wascher
M:2/4
L:1/16
K:Dm
A4G2A2 | D2F2- F2FA | G4E2c2 | A2G2A4 |\
A4G2A2 | D2F2- F2FA | G4E2c2 | A8 :| 
G4d4 | c2G2-G2B2 | A3GA2B2 | A2G2F2D2 |\
G4d4 | c2G2-G2B2 | A3GA2B2 | A8 :|
